X: 10464
Q: "With spirit."
M: 2/4
L: 1/8
K: G
|: (B/c/) |\
dz Bz | Gz D(G/B/) | cz Az | Fz D(B/c/) |\
dz Bz | Gz D(G/B/) | AD F(E/D/) | G2 G :|


